packages/sources/icons/src/vitamix/star-half-line.svg

<svg width="16" height="16" viewBox="0 0 16 16" fill="none" xmlns="http://www.w3.org/2000/svg">
<path fill-rule="evenodd" clip-rule="evenodd" d="M3.29803 14.8053L8.00003 12.1733L12.702 14.8053L11.652 9.52L15.6087 5.86133L10.2574 5.22667L8.00003 0.333334L5.74269 5.22667L0.391361 5.86133L4.34803 9.52L3.29803 14.8053ZM10.8313 12.23L8 10.6454V3.5167L9.35867 6.4627L12.5807 6.8447L10.1987 9.04803L10.8313 12.23Z" fill="#001018"/>
</svg>

<svg width="16" height="16" fill="none" xmlns="http://www.w3.org/2000/svg"><path fill-rule="evenodd" clip-rule="evenodd" d="M3.298 14.805 8 12.173l4.702 2.632-1.05-5.285 3.957-3.659-5.352-.634L8 .333 5.743 5.227.39 5.86l3.958 3.66-1.05 5.285zm7.533-2.575L8 10.645V3.517l1.359 2.946 3.222.382-2.382 2.203.632 3.182z" fill="#001018"/></svg>
